Numix-Circle/48/applications/preferences-system-time.svg

<svg xmlns="http://www.w3.org/2000/svg" viewBox="0 0 256 256" xmlns:xlink="http://www.w3.org/1999/xlink">
<g style="stroke:#efa255;stroke-linecap:round;fill:none">
<g transform="translate(0 208)">
<path style="stroke-width:3.487" d="m 28.158002,27.544411 c 0,9.832843 -7.971095,17.803938 -17.803938,17.803938 -9.83284341,0 -17.8039379,-7.971095 -17.8039379,-17.803938 0,-9.832844 7.97109449,-17.8039382 17.8039379,-17.8039382 9.832843,0 17.803938,7.9710942 17.803938,17.8039382 z" transform="matrix(5.11573 0 0 5.11573 75.03143 -220.90966)"/>
<path style="stroke-width:22.267" d="m 127.32473,-128.03396 0,45.758423 41.62317,41.624249"/>
</g>
<g style="stroke-width:3.884" transform="translate(0 208)">
<path d="m 127.9704,-158.54171 0,12.13603"/>
<path d="m 127.9704,-13.06931 0,12.13683777"/>
<path d="m 49.674845,-78.364636 12.13631,0"/>
<path d="m 193.42384,-78.364636 12.13631,0"/>
</g>
</g>
</svg>

<svg width="48" xmlns="http://www.w3.org/2000/svg" height="48" viewBox="0 0 48 48" xmlns:xlink="http://www.w3.org/1999/xlink">
<g style="stroke:#eea254;stroke-linecap:round;fill:none">
<g>
<path style="stroke-width:3.487" d="M 28.158632 27.5444 C 28.158632 37.379266 20.188929 45.348969 10.354063 45.348969 C 0.519197 45.348969 -7.450506 37.379266 -7.450506 27.5444 C -7.450506 17.713606 0.519197 9.739831 10.354063 9.739831 C 20.188929 9.739831 28.158632 17.713606 28.158632 27.5444 Z " transform="matrix(.9592 0 0 .9592 14.06839 -2.42056)"/>
<path style="stroke-width:22.267" d="M 127.333333 -128.041667 L 127.333333 -82.270833 L 168.9375 -40.645833 " transform="matrix(.1875 0 0 .1875 0 39)"/>
</g>
<g style="stroke-width:3.884">
<path d="M 127.979167 -158.541667 L 127.979167 -146.395833 " transform="matrix(.1875 0 0 .1875 0 39)"/>
<path d="M 127.979167 -13.0625 L 127.979167 -0.9375 " transform="matrix(.1875 0 0 .1875 0 39)"/>
<path d="M 49.666667 -78.375 L 61.8125 -78.375 " transform="matrix(.1875 0 0 .1875 0 39)"/>
<path d="M 193.416667 -78.375 L 205.5625 -78.375 " transform="matrix(.1875 0 0 .1875 0 39)"/>
</g>
</g>
</svg>
